symbols/web/speaker_phone/materialsymbolsrounded/speaker_phone_wght500gradN25fill1_40px.svg

<svg xmlns="http://www.w3.org/2000/svg" height="40" width="40"><path d="M24.083 36.833h-8.166q-1.25 0-2.146-.895-.896-.896-.896-2.146V19.125q0-1.25.896-2.146.896-.896 2.146-.896h8.166q1.209 0 2.105.896.895.896.895 2.146v14.667q0 1.25-.895 2.146-.896.895-2.105.895ZM12.042 11.708q-.459-.416-.438-1.02.021-.605.479-.938 1.625-1.208 3.646-1.896Q17.75 7.167 20 7.167t4.271.687q2.021.688 3.646 1.896.458.333.479.938.021.604-.438 1.02-.375.417-1 .459-.625.041-1.125-.334-1.333-.875-2.812-1.312-1.479-.438-3.021-.438-1.542 0-3.021.438-1.479.437-2.812 1.312-.5.375-1.125.334-.625-.042-1-.459Zm-3.75-3.791q-.417-.459-.417-1.042t.458-.917q2.375-1.916 5.417-3.041T20 1.792q3.208 0 6.25 1.125t5.417 3.041q.458.334.458.917t-.417 1.042q-.416.375-1.02.416-.605.042-1.063-.333-2.042-1.583-4.479-2.458-2.438-.875-5.146-.875-2.708 0-5.146.875-2.437.875-4.479 2.458-.458.375-1.063.333-.604-.041-1.02-.416Z"/></svg>

<svg xmlns="http://www.w3.org/2000/svg" height="40" width="40"><path d="M24.083 36.833H15.917Q14.667 36.833 13.771 35.938Q12.875 35.042 12.875 33.792V19.125Q12.875 17.875 13.771 16.979Q14.667 16.083 15.917 16.083H24.083Q25.292 16.083 26.188 16.979Q27.083 17.875 27.083 19.125V33.792Q27.083 35.042 26.188 35.938Q25.292 36.833 24.083 36.833ZM12.042 11.708Q11.583 11.292 11.604 10.688Q11.625 10.083 12.083 9.75Q13.708 8.542 15.729 7.854Q17.75 7.167 20 7.167Q22.25 7.167 24.271 7.854Q26.292 8.542 27.917 9.75Q28.375 10.083 28.396 10.688Q28.417 11.292 27.958 11.708Q27.583 12.125 26.958 12.167Q26.333 12.208 25.833 11.833Q24.5 10.958 23.021 10.521Q21.542 10.083 20 10.083Q18.458 10.083 16.979 10.521Q15.5 10.958 14.167 11.833Q13.667 12.208 13.042 12.167Q12.417 12.125 12.042 11.708ZM8.292 7.917Q7.875 7.458 7.875 6.875Q7.875 6.292 8.333 5.958Q10.708 4.042 13.75 2.917Q16.792 1.792 20 1.792Q23.208 1.792 26.25 2.917Q29.292 4.042 31.667 5.958Q32.125 6.292 32.125 6.875Q32.125 7.458 31.708 7.917Q31.292 8.292 30.688 8.333Q30.083 8.375 29.625 8Q27.583 6.417 25.146 5.542Q22.708 4.667 20 4.667Q17.292 4.667 14.854 5.542Q12.417 6.417 10.375 8Q9.917 8.375 9.312 8.333Q8.708 8.292 8.292 7.917Z"/></svg>
